assets/Mouse/Flat/mouse_flat.svg

<svg width="32" height="32" viewBox="0 0 32 32" fill="none" xmlns="http://www.w3.org/2000/svg">
<path d="M10.32 10.64C12.7059 10.64 14.64 8.70587 14.64 6.32C14.64 3.93413 12.7059 2 10.32 2C7.93413 2 6 3.93413 6 6.32C6 8.70587 7.93413 10.64 10.32 10.64Z" fill="#B4ACBC"/>
<path d="M13.34 2C15.73 2 17.67 3.94 17.67 6.33C17.67 6.43325 17.6664 6.53565 17.6593 6.63707L19.32 6.20999C24.884 5.00562 29.9526 9.40868 29.9997 15.0902C29.9999 15.0934 30 15.0967 30 15.1V19.89C30 21.62 29.6 23.02 27.87 23.02H22.22C20.7322 23.02 19.8822 22.2115 19.4833 21.01H16.41C15.01 21.01 13.68 20.49 12.48 19.91L12.1971 21L10.5 21.5L8.94931 21L9.75001 17.87C8.99507 17.0464 8.38614 16.0768 7.97172 15H4.14C2.96 15 2 14.04 2 12.86C2 12.16 2.34 11.51 2.91 11.11L9.03 6.82C9.01 6.66 9 6.5 9 6.33C9 3.94 10.95 2 13.34 2Z" fill="#CDC4D6"/>
<path d="M13.33 9.57996C15.1249 9.57996 16.58 8.12488 16.58 6.32996C16.58 4.53503 15.1249 3.07996 13.33 3.07996C11.5351 3.07996 10.08 4.53503 10.08 6.32996C10.08 8.12488 11.5351 9.57996 13.33 9.57996Z" fill="#FF8687"/>
<path d="M27.0289 23.016C26.4177 23.6357 25.5684 24.0201 24.63 24.0201L18.99 24.0101C17.34 24.0101 16 25.3501 16 27.0001C16 28.6501 17.34 29.9901 18.98 29.9901L23 30.0001C23.55 30.0001 24 29.5601 24.01 29.0001C24.01 28.4501 23.56 28.0001 23.01 28.0001L18.99 27.9901C18.44 27.9901 18 27.5501 18 27.0001C18 26.4501 18.44 26.0101 18.99 26.0101L24.63 26.0201C27.59 26.0201 30 23.6101 30 20.6501V19.8986C29.9955 21.5714 28.6821 22.9336 27.0289 23.016Z" fill="#FF8687"/>
<path d="M22.8167 23C21.4955 22.8684 20.3626 22.0969 19.7321 21H17.1111C16.4938 21 16 21.4444 16 22C16 22.5556 16.4938 23 17.1111 23H22.8167Z" fill="#FF8687"/>
<path d="M8.54003 22.61L8.95003 21H12.19L11.87 22.26C11.73 22.8 11.42 23 11 23H8.84003C8.64003 23 8.49003 22.8 8.54003 22.61Z" fill="#FF8687"/>
<path d="M2 12.84C2 12.46 2.1 12.09 2.29 11.77C2.75 11.9 3.08 12.31 3.08 12.81C3.08 13.32 2.73 13.74 2.26 13.86C2.09 13.56 2 13.21 2 12.84Z" fill="#FF8687"/>
<path d="M6.81 12.62C7.25735 12.62 7.62 12.2574 7.62 11.81C7.62 11.3626 7.25735 11 6.81 11C6.36265 11 6 11.3626 6 11.81C6 12.2574 6.36265 12.62 6.81 12.62Z" fill="#1C1C1C"/>
</svg>

<svg xmlns="http://www.w3.org/2000/svg" width="32" height="32" fill="none"><path fill="#B4ACBC" d="M10.32 10.64a4.32 4.32 0 1 0 0-8.64 4.32 4.32 0 0 0 0 8.64Z"/><path fill="#CDC4D6" d="M13.34 2a4.332 4.332 0 0 1 4.32 4.637l1.66-.427C24.884 5.006 29.953 9.409 30 15.09v4.8c0 1.73-.4 3.13-2.13 3.13h-5.65c-1.488 0-2.338-.808-2.737-2.01H16.41c-1.4 0-2.73-.52-3.93-1.1L12.197 21l-1.697.5-1.55-.5.8-3.13A9.065 9.065 0 0 1 7.972 15H4.14C2.96 15 2 14.04 2 12.86c0-.7.34-1.35.91-1.75l6.12-4.29C9.01 6.66 9 6.5 9 6.33A4.34 4.34 0 0 1 13.34 2Z"/><path fill="#FF8687" d="M13.33 9.58a3.25 3.25 0 1 0 0-6.5 3.25 3.25 0 0 0 0 6.5ZM27.029 23.016a3.36 3.36 0 0 1-2.399 1.004l-5.64-.01a2.99 2.99 0 0 0-.01 5.98L23 30c.55 0 1-.44 1.01-1 0-.55-.45-1-1-1l-4.02-.01c-.55 0-.99-.44-.99-.99s.44-.99.99-.99l5.64.01c2.96 0 5.37-2.41 5.37-5.37V19.9a3.128 3.128 0 0 1-2.971 3.117Z"/><path fill="#FF8687" d="M22.817 23a4.021 4.021 0 0 1-3.085-2h-2.62c-.618 0-1.112.444-1.112 1s.494 1 1.111 1h5.706ZM8.54 22.61 8.95 21h3.24l-.32 1.26c-.14.54-.45.74-.87.74H8.84c-.2 0-.35-.2-.3-.39ZM2 12.84c0-.38.1-.75.29-1.07.46.13.79.54.79 1.04 0 .51-.35.93-.82 1.05-.17-.3-.26-.65-.26-1.02Z"/><path fill="#1C1C1C" d="M6.81 12.62a.81.81 0 1 0 0-1.62.81.81 0 0 0 0 1.62Z"/></svg>
